app/img/categories__bed.svg

<svg width="82" height="100" viewBox="0 0 82 100" fill="none" xmlns="http://www.w3.org/2000/svg">
<path d="M75.6851 33.7601H6.31492C5.66779 33.7601 5.14313 33.2354 5.14313 32.5883V8.24723C5.14313 7.6001 5.66779 7.07544 6.31492 7.07544H75.6851C76.3323 7.07544 76.8571 7.6001 76.8571 8.24723V32.5883C76.8569 33.2354 76.3323 33.7601 75.6851 33.7601ZM7.48671 31.4164H74.5132V9.41902H7.48671V31.4164Z" fill="#44C697"/>
<path d="M70.3066 33.7601H11.693C11.0459 33.7601 10.5212 33.2354 10.5212 32.5883V13.6254C10.5212 12.9783 11.0459 12.4536 11.693 12.4536H70.3066C70.9538 12.4536 71.4786 12.9783 71.4786 13.6254V32.5881C71.4786 33.2354 70.9539 33.7601 70.3066 33.7601ZM12.865 31.4163H69.1349V14.7974H12.865V31.4163Z" fill="#44C697"/>
<path d="M37.4656 33.76H15.2274C12.6295 33.7571 10.5242 31.6517 10.5212 29.0539V17.1596C10.5241 14.5616 12.6295 12.4564 15.2274 12.4534H37.4656C40.0636 12.4562 42.1689 14.5616 42.1719 17.1596V29.0539C42.1689 31.6519 40.0636 33.7571 37.4656 33.76ZM15.2274 14.7973C13.9234 14.7988 12.8665 15.8556 12.8649 17.1598V29.0541C12.8665 30.3581 13.9232 31.415 15.2274 31.4164H37.4656C38.7697 31.415 39.8266 30.3581 39.8281 29.0541V17.1598C39.8266 15.8557 38.7699 14.7988 37.4656 14.7973H15.2274Z" fill="#44C697"/>
<path d="M66.7723 33.76H44.5341C41.9361 33.7571 39.8309 31.6517 39.8278 29.0539V17.1596C39.8307 14.5616 41.9361 12.4564 44.5341 12.4534H66.7723C69.3703 12.4562 71.4755 14.5616 71.4785 17.1596V29.0539C71.4755 31.6519 69.3703 33.7571 66.7723 33.76ZM44.5341 14.7973C43.23 14.7988 42.1731 15.8556 42.1716 17.1598V29.0541C42.1731 30.3581 43.2299 31.415 44.5341 31.4164H66.7723C68.0763 31.415 69.1333 30.3581 69.1348 29.0541V17.1598C69.1333 15.8557 68.0765 14.7988 66.7723 14.7973H44.5341Z" fill="#44C697"/>
<path d="M76.5331 92.9248H5.46671C2.8689 92.9218 0.763661 90.8167 0.76062 88.2187V36.1223C0.763661 33.5245 2.8689 31.4193 5.46671 31.4163H76.5331C79.131 31.4191 81.2363 33.5244 81.2393 36.1223V88.2187C81.2363 90.8165 79.131 92.9218 76.5331 92.9248ZM5.46671 33.76C4.16265 33.7614 3.10572 34.8183 3.1042 36.1223V88.2187C3.10572 89.5228 4.16248 90.5795 5.46671 90.5811H76.5331C77.8371 90.5795 78.8939 89.5228 78.8954 88.2187V36.1223C78.8939 34.8183 77.8371 33.7614 76.5331 33.76H5.46671Z" fill="#44C697"/>
<path d="M76.9842 9.41893H5.01569C2.6667 9.41623 0.763323 7.51268 0.76062 5.16386V4.25507C0.763323 1.90625 2.6667 0.00270271 5.01569 0H76.9842C79.3332 0.00270271 81.2366 1.90625 81.2393 4.25507V5.16386C81.2366 7.51285 79.3331 9.41623 76.9842 9.41893ZM5.01569 2.34375C3.96063 2.34494 3.10556 3.20001 3.10437 4.25507V5.16386C3.10556 6.21893 3.96063 7.074 5.01569 7.07518H76.9842C78.0393 7.074 78.8944 6.21893 78.8956 5.16386V4.25507C78.8944 3.20001 78.0393 2.34494 76.9842 2.34375H5.01569Z" fill="#44C697"/>
<path d="M76.9842 100H5.01569C2.6667 99.9973 0.763323 98.0937 0.76062 95.7449V94.8361C0.763323 92.4871 2.66687 90.5838 5.01569 90.5811H76.9842C79.3332 90.5838 81.2366 92.4873 81.2393 94.8361V95.7449C81.2366 98.0937 79.3331 99.9973 76.9842 100ZM5.01569 92.9248C3.96063 92.926 3.10556 93.7811 3.10437 94.8361V95.7449C3.10556 96.8 3.96063 97.655 5.01569 97.6562H76.9842C78.0393 97.655 78.8944 96.8 78.8956 95.7449V94.8361C78.8944 93.7811 78.0393 92.926 76.9842 92.9248H5.01569Z" fill="#44C697"/>
</svg>

<svg width="82" height="100" fill="none" xmlns="http://www.w3.org/2000/svg"><path d="M75.685 33.76H6.315a1.172 1.172 0 01-1.172-1.172V8.248c0-.648.525-1.173 1.172-1.173h69.37c.647 0 1.172.525 1.172 1.172v24.341c0 .647-.525 1.172-1.172 1.172zM7.487 31.416h67.026V9.42H7.487v21.997z" fill="#44C697"/><path d="M70.307 33.76H11.693a1.172 1.172 0 01-1.172-1.172V13.625c0-.647.525-1.171 1.172-1.171h58.614c.647 0 1.172.524 1.172 1.171v18.963c0 .647-.525 1.172-1.172 1.172zm-57.442-2.344h56.27V14.797h-56.27v16.62z" fill="#44C697"/><path d="M37.466 33.76H15.227a4.712 4.712 0 01-4.706-4.706V17.16a4.712 4.712 0 014.706-4.707h22.239a4.711 4.711 0 014.706 4.707v11.894a4.711 4.711 0 01-4.706 4.706zM15.227 14.797a2.365 2.365 0 00-2.362 2.363v11.894a2.365 2.365 0 002.362 2.362h22.239a2.365 2.365 0 002.362-2.362V17.16a2.365 2.365 0 00-2.362-2.363H15.227z" fill="#44C697"/><path d="M66.772 33.76H44.534a4.712 4.712 0 01-4.706-4.706V17.16a4.712 4.712 0 014.706-4.707h22.238a4.711 4.711 0 014.706 4.707v11.894a4.711 4.711 0 01-4.706 4.706zM44.534 14.797a2.365 2.365 0 00-2.362 2.363v11.894a2.365 2.365 0 002.362 2.362h22.238a2.365 2.365 0 002.363-2.362V17.16a2.365 2.365 0 00-2.363-2.363H44.534z" fill="#44C697"/><path d="M76.533 92.925H5.467A4.712 4.712 0 01.76 88.219V36.122a4.712 4.712 0 014.706-4.706h71.066a4.711 4.711 0 014.706 4.706V88.22a4.712 4.712 0 01-4.706 4.706zM5.467 33.76a2.365 2.365 0 00-2.363 2.362V88.22a2.365 2.365 0 002.363 2.362h71.066a2.365 2.365 0 002.362-2.362V36.122a2.365 2.365 0 00-2.362-2.362H5.467zM76.984 9.419H5.016A4.26 4.26 0 01.76 5.164v-.909A4.26 4.26 0 015.016 0h71.968a4.26 4.26 0 014.255 4.255v.909a4.26 4.26 0 01-4.255 4.255zM5.016 2.344a1.914 1.914 0 00-1.912 1.911v.909a1.914 1.914 0 001.912 1.911h71.968a1.914 1.914 0 001.912-1.911v-.909a1.914 1.914 0 00-1.912-1.911H5.016z" fill="#44C697"/><path d="M76.984 100H5.016A4.26 4.26 0 01.76 95.745v-.909a4.26 4.26 0 014.255-4.255h71.968a4.26 4.26 0 014.255 4.255v.909A4.26 4.26 0 0176.984 100zM5.016 92.925a1.914 1.914 0 00-1.912 1.911v.909a1.913 1.913 0 001.912 1.911h71.968a1.914 1.914 0 001.912-1.911v-.909a1.914 1.914 0 00-1.912-1.911H5.016z" fill="#44C697"/></svg>
